public/images/marquee/hubspot.svg

<svg xmlns="http://www.w3.org/2000/svg" fill="none" viewBox="0 0 128 36">
  <path fill="#CFD1D7" d="M14.3588 5.95996V16.1103H5.03362V5.95996H.609375V30.1903H5.03482v-9.821h9.32278v9.821h4.4266V5.95996h-4.4254ZM32.9493 22.3587c0 .9712-.3859 1.9026-1.0726 2.5893-.6867.6868-1.6182 1.0726-2.5894 1.0726-.9712 0-1.9026-.3858-2.5893-1.0726-.6868-.6867-1.0726-1.6181-1.0726-2.5893V11.9795h-4.1979v10.3792c0 2.0824.8273 4.0796 2.2998 5.5522 1.4726 1.4725 3.4698 2.2998 5.5522 2.2998 2.0825 0 4.0797-.8273 5.5523-2.2998 1.4725-1.4726 2.2998-3.4698 2.2998-5.5522V11.9795h-4.1823v10.3792Zm31.105-9.3096c0-2.1283 1.4073-2.8026 2.9487-2.8026 1.2432 0 2.884.9461 3.9584 2.0935l2.7487-3.24091c-1.3726-1.85641-4.156-3.13913-6.4352-3.13913-4.5548 0-7.8484 2.66724-7.8484 7.08914 0 8.2041 10.027 5.6003 10.027 10.1923 0 1.4156-1.375 2.666-2.9487 2.666-2.4828 0-3.2877-1.2133-4.4279-2.4972l-3.0517 3.1727c1.9523 2.3954 4.3596 3.6122 7.2424 3.6122 4.3273 0 7.8077-2.6996 7.8077-6.9202 0-9.1072-10.0282-6.2771-10.0282-10.2258m62.0399 13.2703c-2.48 0-3.186-1.0731-3.186-2.7163v-7.276h3.857v-3.6865h-3.857V7.77685l-4.256 1.91031V24.5073c0 3.7907 2.616 5.701 6.201 5.701.563.0096 1.126-.036 1.68-.1342l1.038-3.823c-.468.0324-1.006.0647-1.477.0647M48.9288 12.1005c-2.0792 0-3.5308.6036-4.9345 1.9798V6.10488h-4.2039V20.8879c0 5.5333 4.0003 9.3252 8.4964 9.3252 4.9872 0 9.3743-3.859 9.3743-9.0545 0-5.1309-4.0374-9.0545-8.7323-9.0545m-.0264 13.8776c-.6265 0-1.2469-.1235-1.8258-.3632-.5788-.2398-1.1048-.5912-1.5478-1.0342-.443-.4431-.7944-.969-1.0342-1.5478-.2398-.5789-.3632-1.1993-.3632-1.8258 0-.6266.1234-1.247.3632-1.8258s.5912-1.1048 1.0342-1.5478c.443-.443.969-.7945 1.5478-1.0342.5789-.2398 1.1993-.3632 1.8258-.3632 1.2654 0 2.4789.5027 3.3736 1.3974.8947.8947 1.3974 2.1082 1.3974 3.3736 0 1.2653-.5027 2.4788-1.3974 3.3736-.8947.8947-2.1082 1.3974-3.3736 1.3974Zm45.6821-5.0435c0-5.2051-4.3775-9.0545-9.3743-9.0545-4.4949 0-8.4964 3.7907-8.4964 9.3252v14.7914h4.2039v-7.9862c1.4013 1.3738 2.8553 1.9798 4.9321 1.9798 4.6949 0 8.7347-3.9236 8.7347-9.0557Zm-3.9811-.0527c0 1.2653-.5027 2.4789-1.3974 3.3736-.8947.8947-2.1082 1.3974-3.3736 1.3974-1.2653 0-2.4788-.5027-3.3736-1.3974-.8947-.8947-1.3974-2.1083-1.3974-3.3736 0-1.2653.5027-2.4789 1.3974-3.3736.8948-.8947 2.1083-1.3974 3.3736-1.3974 1.2654 0 2.4789.5027 3.3736 1.3974.8947.8947 1.3974 2.1083 1.3974 3.3736Z"/>
  <path fill="#CFD1D7" d="M108.169 11.6798V7.45559c.558-.2609 1.03-.67497 1.363-1.19403.332-.51905.509-1.12174.512-1.73791v-.09701c0-1.79653-1.456-3.25291-3.253-3.25291h-.097c-.862 0-1.69.34272-2.3.95275-.61.61004-.953 1.43744-.953 2.30016v.09701c.003.61617.181 1.21886.513 1.73791.332.51906.805.93313 1.363 1.19403v4.22421c-1.604.2457-3.115.9109-4.38 1.9283L89.3518 4.58473c.0826-.29822.1258-.60483.1306-.91263.0014-.72495-.2122-1.43404-.6139-2.03757-.4016-.60354-.9732-1.074396-1.6425-1.353027-.6692-.27863106-1.4061-.3525137-2.1174-.2123025-.7112.1402115-1.3649.4882165-1.8784.9999995-.5135.51178-.8636 1.16434-1.0061 1.87514-.1426.71081-.0711 1.44792.2053 2.11809.2765.67018.7455 1.24332 1.3477 1.64692.6022.4036 1.3106.61953 2.0355.62048.6343-.00299 1.2566-.17231 1.805-.49105L99.0255 15.716c-1.0248 1.5482-1.5595 3.3693-1.5343 5.2257.0252 1.8565.6091 3.6624 1.6756 5.1822l-3.4697 3.4709c-.2804-.0897-.5727-.1373-.8671-.1413-.5951.0004-1.1766.1773-1.6712.5082-.4946.3309-.88.801-1.1075 1.3509-.2275.5498-.2869 1.1548-.1707 1.7384.1162.5836.4028 1.1197.8236 1.5405.4208.4208.9568.7074 1.5404.8236.5837.1162 1.1886.0568 1.7385-.1707.5499-.2275 1.02-.6129 1.3509-1.1075.3309-.4946.5077-1.0762.5082-1.6713-.0039-.2944-.0515-.5867-.1413-.8671l3.4321-3.4338c1.12.8618 2.421 1.4559 3.806 1.7368 1.384.281 2.815.2413 4.181-.1159 1.367-.3573 2.634-1.0226 3.704-1.9451 1.07-.9224 1.914-2.0775 2.469-3.3768.554-1.2992.804-2.7082.73-4.1188-.075-1.4107-.471-2.7857-1.158-4.0197-.688-1.2339-1.649-2.2941-2.809-3.0993-1.161-.8052-2.491-1.3341-3.887-1.5461Zm-1.423 13.8932c-.635.0174-1.266-.0925-1.857-.3232s-1.13-.5775-1.585-1.0201c-.455-.4425-.817-.9717-1.064-1.5563-.246-.5847-.374-1.2128-.374-1.8475 0-.6346.128-1.2628.374-1.8474.247-.5846.609-1.1138 1.064-1.5564.455-.4425.994-.7893 1.585-1.0201.591-.2307 1.222-.3405 1.857-.3231 1.229.0431 2.394.5616 3.249 1.4464.855.8848 1.333 2.0669 1.333 3.2971.001 1.2303-.476 2.4128-1.33 3.2985-.854.8856-2.018 1.4054-3.247 1.4497"/>
</svg>

<svg width="128" height="36" viewBox="0 0 128 36" fill="none" xmlns="http://www.w3.org/2000/svg">
<path d="M14.3588 5.95996V16.1103H5.03362V5.95996H0.609375V30.1903H5.03482V20.3693H14.3576V30.1903H18.7842V5.95996H14.3588ZM32.9493 22.3587C32.9493 23.3299 32.5634 24.2613 31.8767 24.948C31.19 25.6348 30.2585 26.0206 29.2873 26.0206C28.3161 26.0206 27.3847 25.6348 26.698 24.948C26.0112 24.2613 25.6254 23.3299 25.6254 22.3587V11.9795H21.4275V22.3587C21.4275 24.4411 22.2548 26.4383 23.7273 27.9109C25.1999 29.3834 27.1971 30.2107 29.2795 30.2107C31.362 30.2107 33.3592 29.3834 34.8318 27.9109C36.3043 26.4383 37.1316 24.4411 37.1316 22.3587V11.9795H32.9493V22.3587ZM64.0543 13.0491C64.0543 10.9208 65.4616 10.2465 67.003 10.2465C68.2462 10.2465 69.887 11.1926 70.9614 12.34L73.7101 9.09909C72.3375 7.24268 69.5541 5.95996 67.2749 5.95996C62.7201 5.95996 59.4265 8.6272 59.4265 13.0491C59.4265 21.2532 69.4535 18.6494 69.4535 23.2414C69.4535 24.657 68.0785 25.9074 66.5048 25.9074C64.022 25.9074 63.2171 24.6941 62.0769 23.4102L59.0252 26.5829C60.9775 28.9783 63.3848 30.1951 66.2676 30.1951C70.5949 30.1951 74.0753 27.4955 74.0753 23.2749C74.0753 14.1677 64.0471 16.9978 64.0471 13.0491M126.087 26.3194C123.607 26.3194 122.901 25.2463 122.901 23.6031V16.3271H126.758V12.6406H122.901V7.77685L118.645 9.68716V24.5073C118.645 28.298 121.261 30.2083 124.846 30.2083C125.409 30.2179 125.972 30.1723 126.526 30.0741L127.564 26.2511C127.096 26.2835 126.558 26.3158 126.087 26.3158M48.9288 12.1005C46.8496 12.1005 45.398 12.7041 43.9943 14.0803V6.10488H39.7904V20.8879C39.7904 26.4212 43.7907 30.2131 48.2868 30.2131C53.274 30.2131 57.6611 26.3541 57.6611 21.1586C57.6611 16.0277 53.6237 12.1041 48.9288 12.1041M48.9024 25.9817C48.2759 25.9817 47.6555 25.8582 47.0766 25.6185C46.4978 25.3787 45.9718 25.0273 45.5288 24.5843C45.0858 24.1412 44.7344 23.6153 44.4946 23.0365C44.2548 22.4576 44.1314 21.8372 44.1314 21.2107C44.1314 20.5841 44.2548 19.9637 44.4946 19.3849C44.7344 18.8061 45.0858 18.2801 45.5288 17.8371C45.9718 17.3941 46.4978 17.0426 47.0766 16.8029C47.6555 16.5631 48.2759 16.4397 48.9024 16.4397C50.1678 16.4397 51.3813 16.9424 52.276 17.8371C53.1707 18.7318 53.6734 19.9453 53.6734 21.2107C53.6734 22.476 53.1707 23.6895 52.276 24.5843C51.3813 25.479 50.1678 25.9817 48.9024 25.9817ZM94.5845 20.9382C94.5845 15.7331 90.207 11.8837 85.2102 11.8837C80.7153 11.8837 76.7138 15.6744 76.7138 21.2089V36.0003H80.9177V28.0141C82.319 29.3879 83.773 29.9939 85.8498 29.9939C90.5447 29.9939 94.5845 26.0703 94.5845 20.9382ZM90.6034 20.8855C90.6034 22.1508 90.1007 23.3644 89.206 24.2591C88.3113 25.1538 87.0978 25.6565 85.8324 25.6565C84.5671 25.6565 83.3536 25.1538 82.4588 24.2591C81.5641 23.3644 81.0614 22.1508 81.0614 20.8855C81.0614 19.6202 81.5641 18.4066 82.4588 17.5119C83.3536 16.6172 84.5671 16.1145 85.8324 16.1145C87.0978 16.1145 88.3113 16.6172 89.206 17.5119C90.1007 18.4066 90.6034 19.6202 90.6034 20.8855Z" fill="#CFD1D7"/>
<path d="M108.169 11.6798V7.45559C108.727 7.19469 109.199 6.78062 109.532 6.26156C109.864 5.74251 110.041 5.13982 110.044 4.52365V4.42664C110.044 2.63011 108.588 1.17373 106.791 1.17373H106.694C105.832 1.17373 105.004 1.51645 104.394 2.12648C103.784 2.73652 103.441 3.56392 103.441 4.42664V4.52365C103.444 5.13982 103.622 5.74251 103.954 6.26156C104.286 6.78062 104.759 7.19469 105.317 7.45559V11.6798C103.713 11.9255 102.202 12.5907 100.937 13.6081L89.3518 4.58473C89.4344 4.28651 89.4776 3.9799 89.4824 3.6721C89.4838 2.94715 89.2702 2.23806 88.8685 1.63453C88.4669 1.03099 87.8953 0.560134 87.226 0.281503C86.5568 0.00287194 85.8199 -0.0710107 85.1086 0.0692005C84.3974 0.209412 83.7437 0.557417 83.2302 1.0692C82.7167 1.58098 82.3666 2.23354 82.2241 2.94434C82.0815 3.65515 82.153 4.39226 82.4294 5.06243C82.7059 5.73261 83.1749 6.30575 83.7771 6.70935C84.3793 7.11295 85.0877 7.32888 85.8126 7.32983C86.4469 7.32684 87.0692 7.15752 87.6176 6.83878L99.0255 15.716C98.0007 17.2642 97.466 19.0853 97.4912 20.9417C97.5164 22.7982 98.1003 24.6041 99.1668 26.1239L95.6971 29.5948C95.4167 29.5051 95.1244 29.4575 94.83 29.4535C94.2349 29.4539 93.6534 29.6308 93.1588 29.9617C92.6642 30.2926 92.2788 30.7627 92.0513 31.3126C91.8238 31.8624 91.7644 32.4674 91.8806 33.051C91.9968 33.6346 92.2834 34.1707 92.7042 34.5915C93.125 35.0123 93.661 35.2989 94.2446 35.4151C94.8283 35.5313 95.4332 35.4719 95.9831 35.2444C96.533 35.0169 97.0031 34.6315 97.334 34.1369C97.6649 33.6423 97.8417 33.0607 97.8422 32.4656C97.8383 32.1712 97.7907 31.8789 97.7009 31.5985L101.133 28.1647C102.253 29.0265 103.554 29.6206 104.939 29.9015C106.323 30.1825 107.754 30.1428 109.12 29.7856C110.487 29.4283 111.754 28.763 112.824 27.8405C113.894 26.9181 114.738 25.763 115.293 24.4637C115.847 23.1645 116.097 21.7555 116.023 20.3449C115.948 18.9342 115.552 17.5592 114.865 16.3252C114.177 15.0913 113.216 14.0311 112.056 13.2259C110.895 12.4207 109.565 11.8918 108.169 11.6798ZM106.746 25.573C106.111 25.5904 105.48 25.4805 104.889 25.2498C104.298 25.0191 103.759 24.6723 103.304 24.2297C102.849 23.7872 102.487 23.258 102.24 22.6734C101.994 22.0887 101.866 21.4606 101.866 20.8259C101.866 20.1913 101.994 19.5631 102.24 18.9785C102.487 18.3939 102.849 17.8647 103.304 17.4221C103.759 16.9796 104.298 16.6328 104.889 16.402C105.48 16.1713 106.111 16.0615 106.746 16.0789C107.975 16.122 109.14 16.6405 109.995 17.5253C110.85 18.4101 111.328 19.5922 111.328 20.8224C111.329 22.0527 110.852 23.2352 109.998 24.1209C109.144 25.0065 107.98 25.5263 106.751 25.5706" fill="#CFD1D7"/>
</svg>
